teeny/outline/jpg.svg

<svg width="15" height="15" viewBox="0 0 15 15" fill="none" xmlns="http://www.w3.org/2000/svg">
<path d="M6.5 6.5V6H6V6.5H6.5ZM10.5 10.5H10V11H10.5V10.5ZM12.5 10.5V11H13V10.5H12.5ZM13.5 3.5H14V3.29289L13.8536 3.14645L13.5 3.5ZM10.5 0.5L10.8536 0.146447L10.7071 0H10.5V0.5ZM4.5 6.5H5V6H4.5V6.5ZM4.5 10.5V11H5V10.5H4.5ZM2.5 10.5H2V11H2.5V10.5ZM6.5 7H7.5V6H6.5V7ZM7 11V8.5H6V11H7ZM7 8.5V6.5H6V8.5H7ZM7.5 8H6.5V9H7.5V8ZM8 7.5C8 7.77614 7.77614 8 7.5 8V9C8.32843 9 9 8.32843 9 7.5H8ZM7.5 7C7.77614 7 8 7.22386 8 7.5H9C9 6.67157 8.32843 6 7.5 6V7ZM10 6V10.5H11V6H10ZM10.5 11H12.5V10H10.5V11ZM13 10.5V8.5H12V10.5H13ZM10.5 7H13V6H10.5V7ZM2 5V1.5H1V5H2ZM13 3.5V5H14V3.5H13ZM2.5 1H10.5V0H2.5V1ZM10.1464 0.853553L13.1464 3.85355L13.8536 3.14645L10.8536 0.146447L10.1464 0.853553ZM2 1.5C2 1.22386 2.22386 1 2.5 1V0C1.67157 0 1 0.671573 1 1.5H2ZM1 12V13.5H2V12H1ZM2.5 15H12.5V14H2.5V15ZM14 13.5V12H13V13.5H14ZM12.5 15C13.3284 15 14 14.3284 14 13.5H13C13 13.7761 12.7761 14 12.5 14V15ZM1 13.5C1 14.3284 1.67157 15 2.5 15V14C2.22386 14 2 13.7761 2 13.5H1ZM2 7H4.5V6H2V7ZM4 6.5V10.5H5V6.5H4ZM4.5 10H2.5V11H4.5V10ZM3 10.5V9H2V10.5H3Z" fill="black"/>
</svg>

<svg viewBox="0 0 15 15" xmlns="http://www.w3.org/2000/svg"><path d="M6.5 6.5V6H6v.5h.5Zm4 4H10v.5h.5v-.5Zm2 0v.5h.5v-.5h-.5Zm1-7h.5v-.21l-.15-.15 -.36.35Zm-3-3l.35-.36 -.15-.15h-.21v.5Zm-6 6H5V6h-.5v.5Zm0 4v.5H5v-.5h-.5Zm-2 0H2v.5h.5v-.5Zm4-3.5h1V6h-1v1Zm.5 4V8.5H6V11h1Zm0-2.5v-2H6v2h1Zm.5-.5h-1v1h1V8Zm.5-.5c0 .27-.23.5-.5.5v1C8.32 9 9 8.32 9 7.5H8ZM7.5 7c.27 0 .5.22.5.5h1C9 6.67 8.32 6 7.5 6v1ZM10 6v4.5h1V6h-1Zm.5 5h2v-1h-2v1Zm2.5-.5v-2h-1v2h1ZM10.5 7H13V6h-2.5v1ZM2 5V1.5H1V5h1Zm11-1.5V5h1V3.5h-1ZM2.5 1h8V0h-8v1Zm7.64-.15l3 2.99 .7-.71 -3-3.01 -.71.7Zm-8.15.64c0-.28.22-.5.5-.5v-1c-.83 0-1.5.67-1.5 1.5h1Zm-1 10.5v1.5h1v-1.5h-1Zm1.5 3h10v-1h-10v1Zm11.5-1.5v-1.5h-1v1.5h1Zm-1.5 1.5c.82 0 1.5-.68 1.5-1.5h-1c0 .27-.23.5-.5.5v1Zm-11.5-1.5c0 .82.67 1.5 1.5 1.5v-1c-.28 0-.5-.23-.5-.5h-1Zm1-6.5h2.5v-1h-2.5v1Zm2-.5v4h1v-4h-1Zm.5 3.5h-2v1h2v-1Zm-1.5.5v-1.5h-1v1.5h1Z"/></svg>
